X: 3
T: Ymdaith Yr Hen Gymry
Z: ceolachan
S: https://thesession.org/tunes/4564#setting21739
R: barndance
M: 4/4
L: 1/8
K: Cmaj
|: G |c>c cc G>A BG | cc B/c/d/e/ fg/f/ fg/f/ |
e>c cc GG/A/ B/A/G | cc B/c/d/f/ ec c :|
|:e/f/ |g2 ge/f/ g2 gd/e/ | f2 fd/e/ f2 g/f/e/d/ |
e>c cc GG/A/ B/A/G | c2 B/c/d/f/ ec c :|
